coreui/free/cil-airplane-mode.svg

<svg xmlns="http://www.w3.org/2000/svg" viewBox="0 0 512 512">
  <path fill="var(--ci-primary-color, currentColor)" d="M476.757,337.8l13.329-66.646L320,186.111V113.889a105.15,105.15,0,0,0-37.937-81,40.705,40.705,0,0,0-52.126,0,105.15,105.15,0,0,0-37.937,81v72.222L21.914,271.154,35.243,337.8l157.189-20.5,7.736,81.224L128,429.45V496H384V429.45l-72.168-30.929,7.736-81.224ZM352,450.551V464H160V450.551l74.238-31.818L224,311.24V280.908L60.757,302.2l-2.671-13.354L224,205.889v-92a73.235,73.235,0,0,1,26.423-56.413,8.707,8.707,0,0,1,11.154,0A73.235,73.235,0,0,1,288,113.889v92l165.914,82.957L451.243,302.2,288,280.908V311.24L277.762,418.733Z" class="ci-primary"/>
</svg>

<svg viewBox="0 0 512 512" xmlns="http://www.w3.org/2000/svg"><path d="M476.757 337.8l13.32-66.65 -170.086-85.05v-72.23 0c.04-31.31-13.87-61-37.94-81v-.001c-15.1-12.59-37.03-12.59-52.13 0l0 0c-24.08 20-37.98 49.69-37.94 81v72.22L21.89 271.12l13.329 66.64 157.18-20.5 7.73 81.22 -72.17 30.92v66.55h256V429.4l-72.168-30.93 7.73-81.23ZM352 450.55v13.44H160v-13.45l74.238-31.82L224 311.22v-30.34L60.75 302.17l-2.68-13.36 165.91-82.96v-92 0c-.03-21.8 9.65-42.48 26.42-56.42v0c3.22-2.7 7.92-2.7 11.15 0v-.001c16.76 13.93 26.45 34.61 26.42 56.41v92l165.914 82.95 -2.68 13.35 -163.243-21.3v30.33L277.72 418.65Z"/></svg>
